_includes/icons/ios-earth-element.svg

<svg fill="#666" height="50" viewBox="0 0 50 50" width="50" xmlns="http://www.w3.org/2000/svg"><path d="m16.84375 4c-.28125.042969-.53125.199219-.6875.4375l-16 24c-.3125.464844-.1835938 1.09375.28125 1.40625.464844.3125 1.09375.183594 1.40625-.28125l15.1875-22.78125 9.5625 13.5c.058594.132813.144531.25.25.34375l3.46875 4.9375c.171875.355469.535156.574219.929688.5625.394531-.011719.746093-.253906.894531-.617187.152344-.367188.074219-.785157-.199219-1.070313l-3.1875-4.5 6.34375-7.34375 13.125 17.03125c.34375.433594.976563.5 1.40625.15625.433594-.34375.5-.976562.15625-1.40625l-13.875-18c-.210937-.265625-.539062-.40625-.875-.375-.253906.027344-.488281.148438-.65625.34375l-6.8125 7.875-9.75-13.78125c-.210937-.320312-.589844-.488281-.96875-.4375zm-16.03125 32c-.550781.050781-.957031.542969-.90625 1.09375.0507812.550781.542969.957031 1.09375.90625h48c.359375.003906.695313-.183594.878906-.496094.179688-.3125.179688-.695312 0-1.007812-.183593-.3125-.519531-.5-.878906-.496094h-48c-.03125 0-.0625 0-.09375 0s-.0625 0-.09375 0zm0 8c-.550781.050781-.957031.542969-.90625 1.09375.0507812.550781.542969.957031 1.09375.90625h48c.359375.003906.695313-.183594.878906-.496094.179688-.3125.179688-.695312 0-1.007812-.183593-.3125-.519531-.5-.878906-.496094h-48c-.03125 0-.0625 0-.09375 0s-.0625 0-.09375 0z"/></svg>

<svg xmlns="http://www.w3.org/2000/svg" viewBox="0 0 50 50" width="50" height="50" fill="#666"><path d="M 16.84375 4 C 16.5625 4.042969 16.3125 4.199219 16.15625 4.4375 L 0.15625 28.4375 C -0.15625 28.902344 -0.0273438 29.53125 0.4375 29.84375 C 0.902344 30.15625 1.53125 30.027344 1.84375 29.5625 L 17.03125 6.78125 L 26.59375 20.28125 C 26.652344 20.414063 26.738281 20.53125 26.84375 20.625 L 30.3125 25.5625 C 30.484375 25.917969 30.847656 26.136719 31.242188 26.125 C 31.636719 26.113281 31.988281 25.871094 32.136719 25.507813 C 32.289063 25.140625 32.210938 24.722656 31.9375 24.4375 L 28.75 19.9375 L 35.09375 12.59375 L 48.21875 29.625 C 48.5625 30.058594 49.195313 30.125 49.625 29.78125 C 50.058594 29.4375 50.125 28.804688 49.78125 28.375 L 35.90625 10.375 C 35.695313 10.109375 35.367188 9.96875 35.03125 10 C 34.777344 10.027344 34.542969 10.148438 34.375 10.34375 L 27.5625 18.21875 L 17.8125 4.4375 C 17.601563 4.117188 17.222656 3.949219 16.84375 4 Z M 0.8125 36 C 0.261719 36.050781 -0.144531 36.542969 -0.09375 37.09375 C -0.0429688 37.644531 0.449219 38.050781 1 38 L 49 38 C 49.359375 38.003906 49.695313 37.816406 49.878906 37.503906 C 50.058594 37.191406 50.058594 36.808594 49.878906 36.496094 C 49.695313 36.183594 49.359375 35.996094 49 36 L 1 36 C 0.96875 36 0.9375 36 0.90625 36 C 0.875 36 0.84375 36 0.8125 36 Z M 0.8125 44 C 0.261719 44.050781 -0.144531 44.542969 -0.09375 45.09375 C -0.0429688 45.644531 0.449219 46.050781 1 46 L 49 46 C 49.359375 46.003906 49.695313 45.816406 49.878906 45.503906 C 50.058594 45.191406 50.058594 44.808594 49.878906 44.496094 C 49.695313 44.183594 49.359375 43.996094 49 44 L 1 44 C 0.96875 44 0.9375 44 0.90625 44 C 0.875 44 0.84375 44 0.8125 44 Z"/></svg>
